X:1
T: The Earl of Breadalbane's Hermitage
C:
R:Reel
Q: 232
K:Em
M:4/4
L:1/8
|:e|EE EG B3^c|dB Ad FD AF|EE EG B3g|f^d Bd e3e|
EE EG B3^c|dB Ad FD AF|EE EG B3g|f^d Bd e3:|
|:f|gf ef gf eg|fe da fa df|gf ef gf eg|f^d Bd e3f|
gf ef gf eg|fe da fa df|gb eg bg eg|f^d Bd e3:|
